source/img/icons/login.svg

<svg class="svg-icon" style="width: 1em; height: 1em;vertical-align: middle;fill: currentColor;overflow: hidden;" viewBox="0 0 1024 1024" version="1.1" xmlns="http://www.w3.org/2000/svg"><path d="M426.666667 736 426.666667 597.333333 128 597.333333 128 426.666667 426.666667 426.666667 426.666667 288 650.666667 512 426.666667 736M341.333333 85.333333 725.333333 85.333333C772.266667 85.333333 810.666667 123.733333 810.666667 170.666667L810.666667 853.333333C810.666667 900.266667 772.266667 938.666667 725.333333 938.666667L341.333333 938.666667C294.4 938.666667 256 900.266667 256 853.333333L256 682.666667 341.333333 682.666667 341.333333 853.333333 725.333333 853.333333 725.333333 170.666667 341.333333 170.666667 341.333333 341.333333 256 341.333333 256 170.666667C256 123.733333 294.4 85.333333 341.333333 85.333333Z"  /></svg>

<svg class="navigation__login-icon" style="width:2em;height:2em;vertical-align:middle;fill:currentColor;overflow:hidden" viewBox="0 0 1024 1024" xmlns="http://www.w3.org/2000/svg"><path d="M426.667 736V597.333H128V426.667h298.667V288l224 224-224 224M341.333 85.333h384c46.934 0 85.334 38.4 85.334 85.334v682.666c0 46.934-38.4 85.334-85.334 85.334h-384c-46.933 0-85.333-38.4-85.333-85.334V682.667h85.333v170.666h384V170.667h-384v170.666H256V170.667c0-46.934 38.4-85.334 85.333-85.334Z"/></svg>
